X:18
T:Pols e. Ola Elven
R:rorospols
Z:2001 Brian Wilson <baab@mediaone.net>
Z:StorBrekkingen, Track 3
Z:Pols i Rorostraktom, #149
M:3/4
L:1/8
K:A
|: A,2 e>e gf | d>d cB B>d | c2 Ad c>B | B>A G<A A>d
|  de e>e gf | d>d cB B>d | c>A dc A>c | B/G/B A4  :|
|: z2 a2 a<c' | b>a ga b/g/b | a2 ab c'/a/c' | b/g/b a2 ac'
|  e>e a2 a/b/c' | b>a ga b/g/b | a2 ab c'/a/c' | b/g/b a4   :|
